X:56
T:Prime Of Life,The. JBs.056
R:reel
S:Jas.Blackshaw MS, 1837, N.Shropshire
N:(3ddB G>g TW. What is this?CGP
Z:T. Weatherall 2006
M:4/4
L:1/8
Q:1/2=100
A:North Shropshire
K:G
dedc Bdg2|dedBG2 G>G| AGAB (3cBc e2|dedB G2z2:|
|:d2g2f2g2|f2g2 baab|câ€™2b2a2g2|fdef g2z2:|

